src/telerik-icons/solid/outdent.svg

<?xml version="1.0" encoding="utf-8"?>
<svg xmlns="http://www.w3.org/2000/svg" width="512" height="512" viewBox="0 0 512 512">
  <path d="M480 64H32V32h448v32zm0 32H224v32h256V96zm0 64H224v32h256v-32zm0 64H224v32h256v-32zm0 64H224v32h256v-32zm0 64H224v32h256v-32zm0 64H32v32h448v-32zm-320-64V128L32 240l128 112z"/>
</svg>

<?xml version="1.0" encoding="utf-8"?>
<!-- Generator: Adobe Illustrator 19.2.1, SVG Export Plug-In . SVG Version: 6.00 Build 0)  -->
<svg xmlns="http://www.w3.org/2000/svg" width="512" height="512" viewBox="0 0 512 512">
<path d="M480,64H32V32h448V64z M480,96H224v32h256V96z M480,160H224v32h256V160z M480,224H224v32h256V224z M480,288H224v32h256V288z
	 M480,352H224v32h256V352z M480,416H32v32h448V416z M160,352V128L32,240L160,352z" />
</svg>
